resources/svg/solid/caravan.svg

<svg fill="currentColor" xmlns="http://www.w3.org/2000/svg" viewBox="0 0 640 512"><!--! Font Awesome Free 6.2.0 by @fontawesome - https://fontawesome.com License - https://fontawesome.com/license/free (Icons: CC BY 4.0, Fonts: SIL OFL 1.1, Code: MIT License) Copyright 2022 Fonticons, Inc. --><path d="M0 112C0 67.8 35.8 32 80 32H416c88.4 0 160 71.6 160 160V352h32c17.7 0 32 14.3 32 32s-14.3 32-32 32l-32 0H288c0 53-43 96-96 96s-96-43-96-96H80c-44.2 0-80-35.8-80-80V112zM320 352H448V256H416c-8.8 0-16-7.2-16-16s7.2-16 16-16h32V160c0-17.7-14.3-32-32-32H352c-17.7 0-32 14.3-32 32V352zM96 128c-17.7 0-32 14.3-32 32v64c0 17.7 14.3 32 32 32H224c17.7 0 32-14.3 32-32V160c0-17.7-14.3-32-32-32H96zm96 336c26.5 0 48-21.5 48-48s-21.5-48-48-48s-48 21.5-48 48s21.5 48 48 48z"/></svg>

<svg fill="currentColor" xmlns="http://www.w3.org/2000/svg" viewBox="0 0 640 512"><!--! Font Awesome Free 6.1.2 by @fontawesome - https://fontawesome.com License - https://fontawesome.com/license/free (Icons: CC BY 4.0, Fonts: SIL OFL 1.1, Code: MIT License) Copyright 2022 Fonticons, Inc. --><path d="M0 112C0 67.82 35.82 32 80 32H416C504.4 32 576 103.6 576 192V352H608C625.7 352 640 366.3 640 384C640 401.7 625.7 416 608 416H288C288 469 245 512 192 512C138.1 512 96 469 96 416H80C35.82 416 0 380.2 0 336V112zM320 352H448V256H416C407.2 256 400 248.8 400 240C400 231.2 407.2 224 416 224H448V160C448 142.3 433.7 128 416 128H352C334.3 128 320 142.3 320 160V352zM96 128C78.33 128 64 142.3 64 160V224C64 241.7 78.33 256 96 256H224C241.7 256 256 241.7 256 224V160C256 142.3 241.7 128 224 128H96zM192 464C218.5 464 240 442.5 240 416C240 389.5 218.5 368 192 368C165.5 368 144 389.5 144 416C144 442.5 165.5 464 192 464z"/></svg>
